X: 87
T:Li farandoulaire
O:France
A:Provence
C:Anonyme
C:Paraulo de Charlou Ri?u
R:Farandole
Z:Transcrit et/ou corrig? par Michel BELLON - 2005-07-24
Z:Pour toute observation mailto:galouvielle@free.fr
M:6/8
L:1/8
K:Bbmaj
fgf | e2c efe | d2B ded | c=Bc gf=e | f2z fgf | e2c efe | d2B ded | c=Bc cdc | _Bzz z2F |
w:Li brai-o blan-co, Tai-o-lo~is an-co, Li sou-li? prim, coui-fa dou be-ret blu. De-dins la fou-lo, En fa-ran-dou-lo, Zou! dins lis ?r, cou-me s'e-riau a lu! Ga-
d2e c2d | B3 Fz2 | B2c ded | c=Bc fz F | d2e c2d | B3 Fzc | (cd)c (BA)G | Fz2 |]
w:loi fa-ran-dou-lai-re, En fa-s?nt d'en-tre-chau, Sau-ten aut~! An-sin sau-bren dis-trai-re Lou po_ple prou_ven-?au~!
<end>
<start>
